X:39
T: DIE MUTTER SPRICHT ICH WILLS NICHT LEIDEN
N: E0651
O: Europa, Mitteleuropa, Deutschland, Hessen, Unter - Taunus; Dillkreis
R: Liebes - Lied
M: 3/4
L: 1/8
K: C
G,G,G, | E,3E,E,E, | E,A,G,
G,F,E, | D,3E,F,A, | G,2z
E,E,F, | G,3CCC | B,2A,
DB,A, | G,3G,A,B, | C2z

